!!!COM: Mozart
!!!OTL: Zwolf Variationen in Es, uber die Romanze 'Je suis Lindor' aus der Komodie 'Le Barbier de Seville'
!!!Variation: Variation 6 c
**function	**harm	**kern	**kern
*	*	*clefF4	*clefG2
*	*	*k[b-e-a-]	*k[b-e-a-]
*M2/4	*M2/4	*M2/4	*M2/4
*E-:	*E-:	*E-:	*E-:
=141	=141	=141	=141
8D	8V	16BBB-LL	8B-L 8d 8f
.	.	16BB-	.
8D	8V7c/V	16CC	8AJ 8e- 8f
.	.	16CJJ	.
8D	8Vb	16DDLL	8B-L 8d 8f
.	.	16D	.
8D	8V	16BBB-	8B-J 8d 8f 8b-
.	.	16BB-JJ	.
=142	=142	=142	=142
4.D	4.I	16EE-LL	(4B- 4f 4a-
.	.	16E-	.
.	.	16FF	.
.	.	16FJJ	.
.	.	16GGLL	8e-L) 8g
.	.	16G	.
*	*	*	*^
8D	8viiom7/V	16AA	8ee-J	8g
.	.	16AJJ	.	.
=143	=143	=143	=143	=143
8D	8V	16BB-LL	8ee-L	8fL
.	.	16B-	.	.
8D	8V7c/V	16C	16ddL	8e-J 8a
.	.	16cJJ	16ccJJ	.
8D	8Vb	16DLL	8b-L	8f
.	.	16d	.	.
*	*	*	*v	*v
8D	8V	16BB-	8ddJ 8bb-
.	.	16B-JJ	.
=144	=144	=144	=144
2D	2I	16E-LL	(4b- 4ff 4aa-
.	.	16e-	.
.	.	16BB-	.
.	.	16B-JJ	.
.	.	16GGLL	8b-L) 8ee- 8gg
.	.	16G	.
.	.	16EE-	8b-J
.	.	16E-JJ	.
=145	=145	=145	=145
*	*	*	*^
4D	4V7	16BBB-LL	(8ee-	2f 2a-
.	.	16BB-	.	.
.	.	16BB-	4dd)	.
.	.	16B-JJ	.	.
4D	4iiom7c	16C-LL	.	.
.	.	16c-	.	.
.	.	16CC-	8ff	.
.	.	16C-JJ	.	.
=146	=146	=146	=146	=146
4D	4V7	16BBB-LL	(8ee-	4.f 4.a-
.	.	16BB-	.	.
.	.	16BB-	4dd)	.
.	.	16B-JJ	.	.
4D	4V7d	16AA-LL	.	.
.	.	16A-	.	.
.	.	16AAA-	(16ccLL	8d 8f
.	.	16AA-JJ	16b-JJ)	.
=147	=147	=147	=147	=147
4T	4Ib	16GGGLL	(8ee-L	4.e-
.	.	16GG	.	.
.	.	16GG	8b-J)	.
.	.	16GJJ	.	.
4P	4ii7b	16AAA-LL	(8ccL	.
.	.	16AA-	.	.
.	.	16AA-	16b-L	8f
.	.	16A-JJ	16a-JJ)	.
=148	=148	=148	=148	=148
4D	4Cc	16BB-LL	(4g	4.e-
.	.	16B-	.	.
.	.	16AA	.	.
.	.	16AJJ	.	.
4D	4V	16BB-LL	8fL)	.
.	.	16B-	.	.
.	.	16BBB-	8b-J	8d
.	.	16BB-JJ	.	.
=149	=149	=149	=149	=149
4D	4V7b/vi	16BBBLL	(8a-	4d 4f
.	.	16BB	.	.
.	.	16BB	4g)	.
.	.	16BJJ	.	.
8T	8vi	16CLL	.	8e-L
.	.	16c	.	.
*	*	*	*v	*v
*-	*-	*-	*-
